packages/symbols/svgs/duotone/earth-europa-duotone.svg

<svg width="24" height="24" viewBox="0 0 24 24" fill="none" xmlns="http://www.w3.org/2000/svg">
<g clip-path="url(#clip0_1068_7736)">
<path opacity="0.5" fill-rule="evenodd" clip-rule="evenodd" d="M11.6111 0.143234C12.0843 -0.141585 12.6988 0.0111103 12.9836 0.484288L13.7956 1.83329C13.8322 1.89398 13.8621 1.95839 13.8851 2.02542L14.4114 3.56445L16.1422 4.95732L18.5246 4.67381L19.8264 3.93524C20.3067 3.6627 20.9171 3.83117 21.1896 4.31152C21.4622 4.79188 21.2937 5.40222 20.8133 5.67476L19.3363 6.51276C19.2207 6.57838 19.0931 6.62028 18.961 6.63599L15.961 6.99299C15.694 7.02477 15.4254 6.94766 15.2159 6.77907L12.9319 4.94107C12.7846 4.82248 12.6739 4.66454 12.6127 4.48557L12.0271 2.77341L11.2701 1.51571C10.9853 1.04253 11.138 0.428052 11.6111 0.143234ZM4.33752 2.79C4.68822 2.36335 5.31838 2.30177 5.74503 2.65246L7.35703 3.97746C7.39053 4.00499 7.4222 4.03468 7.45184 4.06632L9.09684 5.82232C9.30527 6.04482 9.40082 6.35024 9.35635 6.65185L8.95235 9.39185C8.90495 9.71331 8.70433 9.99169 8.41438 10.1383L5.92711 11.3964L5.28637 11.943L5.4737 12.2626L6.70502 13.5816C6.81311 13.6974 6.89215 13.8372 6.93563 13.9895L7.64163 16.4625C7.74994 16.8419 7.62505 17.2495 7.3228 17.5031L5.6145 18.9364L5.33154 20.1407C5.20522 20.6784 4.66697 21.0118 4.12933 20.8855C3.59168 20.7592 3.25824 20.2209 3.38455 19.6833L3.74356 18.1553C3.79292 17.9451 3.90895 17.7566 4.07429 17.6179L5.54041 16.3878L5.07862 14.7702L3.93608 13.5464C3.88578 13.4925 3.84159 13.4332 3.80431 13.3696L3.13732 12.2316C2.89224 11.8135 2.98229 11.2798 3.351 10.9652L4.72 9.79724C4.78044 9.74567 4.84681 9.70149 4.91771 9.66563L7.04933 8.5875L7.30736 6.8375L6.03676 5.48117L4.47506 4.19751C4.04841 3.84682 3.98683 3.21666 4.33752 2.79ZM15.7465 9.18844C15.5597 9.14375 15.3639 9.15383 15.1826 9.21749L12.9556 9.99949C12.7784 10.0617 12.6223 10.1726 12.5052 10.3194L10.9122 12.3164C10.7308 12.5438 10.6574 12.8389 10.7111 13.1248L11.0768 15.0695L10.6514 17.0422C10.5869 17.3412 10.6628 17.6533 10.8575 17.8893L12.2515 19.5793C12.4558 19.827 12.7665 19.9615 13.0869 19.941L15.4259 19.791C15.6562 19.7762 15.8743 19.6822 16.0432 19.525L17.8062 17.884C17.9051 17.792 17.9843 17.6809 18.039 17.5574L19.9214 13.3075C20.0444 13.0295 20.0342 12.7105 19.8937 12.4409L18.7587 10.2629C18.6249 10.006 18.3862 9.81982 18.1045 9.75244L15.7465 9.18844ZM13.8894 11.7913L15.5675 11.202L17.1958 11.5915L17.8978 12.9385L16.2938 16.5595L14.9418 17.8179L13.4691 17.9123L12.7086 16.9904L13.0744 15.2938C13.1025 15.1636 13.1043 15.0291 13.0797 14.8982L12.7614 13.2055L13.8894 11.7913Z" fill="black"/>
<path fill-rule="evenodd" clip-rule="evenodd" d="M12 2C6.47715 2 2 6.47715 2 12C2 17.5228 6.47715 22 12 22C17.5228 22 22 17.5228 22 12C22 6.47715 17.5228 2 12 2ZM0 12C0 5.37258 5.37258 0 12 0C18.6274 0 24 5.37258 24 12C24 18.6274 18.6274 24 12 24C5.37258 24 0 18.6274 0 12Z" fill="black"/>
</g>
<defs>
<clipPath id="clip0_1068_7736">
<rect width="24" height="24" fill="white"/>
</clipPath>
</defs>
</svg>

<svg width="24" height="24" viewBox="0 0 24 24" xmlns="http://www.w3.org/2000/svg"><g clip-path="url(#a)" fill-rule="evenodd" clip-rule="evenodd"><path opacity=".5" d="M11.611.143a1 1 0 0 1 1.373.341l.812 1.35a1 1 0 0 1 .09.191l.525 1.54 1.731 1.392 2.383-.283 1.301-.739a1 1 0 1 1 .987 1.74l-1.477.838a1 1 0 0 1-.375.123l-3 .357a1 1 0 0 1-.745-.214l-2.284-1.838a1 1 0 0 1-.32-.455l-.585-1.713-.757-1.257a1 1 0 0 1 .341-1.373ZM4.338 2.79a1 1 0 0 1 1.407-.138l1.612 1.325a1 1 0 0 1 .095.09l1.645 1.755a1 1 0 0 1 .26.83l-.405 2.74a1 1 0 0 1-.538.746l-2.487 1.258-.64.547.187.32 1.231 1.319a1 1 0 0 1 .23.407l.707 2.473a1 1 0 0 1-.32 1.041l-1.708 1.433-.282 1.205a1 1 0 1 1-1.947-.458l.359-1.528a1 1 0 0 1 .33-.537l1.466-1.23-.461-1.618-1.143-1.224a1.001 1.001 0 0 1-.132-.176l-.667-1.138a1 1 0 0 1 .214-1.267L4.72 9.797a1 1 0 0 1 .198-.131l2.131-1.079.258-1.75-1.27-1.356-1.562-1.283a1 1 0 0 1-.137-1.408Zm11.409 6.398a1 1 0 0 0-.564.03l-2.227.781a1 1 0 0 0-.45.32l-1.594 1.997a1 1 0 0 0-.2.809l.365 1.944-.426 1.973a1 1 0 0 0 .207.847l1.393 1.69a1 1 0 0 0 .836.362l2.339-.15a1 1 0 0 0 .617-.266l1.763-1.641a.998.998 0 0 0 .233-.327l1.882-4.25a1 1 0 0 0-.027-.866l-1.135-2.178a1 1 0 0 0-.654-.51l-2.359-.565Zm-1.858 2.603 1.679-.589 1.628.39.702 1.346-1.604 3.621-1.352 1.259-1.473.094-.76-.922.365-1.696a1 1 0 0 0 .006-.396l-.319-1.692 1.128-1.415Z"/><path d="M12 2C6.477 2 2 6.477 2 12s4.477 10 10 10 10-4.477 10-10S17.523 2 12 2ZM0 12C0 5.373 5.373 0 12 0s12 5.373 12 12-5.373 12-12 12S0 18.627 0 12Z"/></g><defs><clipPath id="a"><path fill="#fff" d="M0 0h24v24H0z"/></clipPath></defs></svg>
